X: 751
T: Ertong fangshao
%%abc-version 2.0
%%abcx-abcm2ps-target-version 5.9.1 (29 Sep 2008)
%%abc-creator hum2abc beta
%%abcx-conversion-date 2013/10/02 07:52:30
%%abc-edited-by Helmut Schaffrath
%%humdrum-veritas 3806047171
%%humdrum-veritas-data 3950257490
%%continueall 1
%%barnumbers 0
L: 1/8
M: 2/4
K: G
d e/ d/ c A [I:setbarnb 1]| 
d e/ d/ c A | 
d B d e | 
E GA2 | 
e d e d | 
B ed2 | 
E GA2 | 
c> A G B | 
A ED2 |]  



